(1001)
(T1 D=0.01 CR=0.01 TAPER=15deg - ZMIN=-0.174 - fresa cnica)
G90 G94
G17
G21
G28 G91 Z0
G90

(Projeo4)
T1
S6500 M3
G17 G90 G94
G54
G0 X25.361 Y17.608
Z7.035
G0 Z2.035
G1 Z-0.165 F150
X38.299 Y4.67 F1000
X125.301
X126.45 Y5.819
Y75.47
X28.549
X17.65 Y64.572
Y53.14
X17.88
Y51.44
X16.18
Y53.14
X16.45
Y64.82
X16.465 Y64.95
X16.502 Y65.061
X16.559 Y65.163
X16.67 Y65.289
X27.876 Y76.494
X27.978 Y76.575
X28.082 Y76.628
X28.199 Y76.66
X28.369 Y76.67
X127.05
X127.193 Y76.652
X127.319 Y76.605
X127.43 Y76.533
X127.525 Y76.435
X127.593 Y76.324
X127.636 Y76.197
X127.65 Y76.039
Y5.57
X127.634 Y5.439
X127.598 Y5.329
X127.54 Y5.226
X127.425 Y5.097
X125.974 Y3.646
X125.872 Y3.565
X125.767 Y3.512
X125.651 Y3.48
X125.487 Y3.47
X38.05
X37.877 Y3.496
X37.737 Y3.559
X37.608 Y3.663
X24.733 Y16.539
X24.553 Y16.532
X24.381 Y16.563
X24.221 Y16.631
X24.079 Y16.731
X23.962 Y16.86
X23.876 Y17.011
X23.824 Y17.178
X23.81 Y17.351
X23.833 Y17.523
X23.894 Y17.687
X23.988 Y17.833
X24.111 Y17.956
X24.258 Y18.049
X24.422 Y18.108
X24.587 Y18.13
X24.753 Y18.117
X24.913 Y18.07
X25.06 Y17.991
X25.188 Y17.883
X25.29 Y17.752
X25.36 Y17.609
X25.361 Y17.608
G0 Z3.035
X20.774 Y22.195
Z2.035
G1 Z-0.165 F150
X16.52 Y17.941 F1000
X16.499 Y17.76
X16.44 Y17.594
X16.347 Y17.444
X16.223 Y17.318
X16.074 Y17.223
X15.909 Y17.163
X15.734 Y17.14
X15.558 Y17.157
X15.39 Y17.211
X15.238 Y17.301
X15.11 Y17.422
X15.011 Y17.568
X14.947 Y17.733
X14.92 Y17.907
X14.931 Y18.076
X14.978 Y18.24
X15.058 Y18.389
X15.168 Y18.519
X15.302 Y18.622
X15.456 Y18.695
X15.615 Y18.733
X29.169 Y32.287
X29.044 Y32.442
X28.954 Y32.613
X28.899 Y32.798
X28.88 Y32.99
X28.899 Y33.182
X28.954 Y33.367
X29.044 Y33.538
X29.164 Y33.688
X29.312 Y33.813
X29.48 Y33.907
X29.664 Y33.966
X29.855 Y33.99
X30.048 Y33.976
X30.234 Y33.926
X30.407 Y33.84
X30.569 Y33.715
X30.616 Y33.67
X35.646
X35.792 Y33.799
X35.955 Y33.896
X36.134 Y33.959
X36.321 Y33.988
X36.51 Y33.982
X36.694 Y33.939
X36.868 Y33.863
X37.023 Y33.755
X37.156 Y33.62
X37.261 Y33.463
X37.334 Y33.288
X37.373 Y33.103
X37.378 Y32.92
X46.3
X46.444 Y32.902
X46.602 Y32.84
X46.672 Y32.805
X46.722 Y32.996
X46.805 Y33.168
X46.919 Y33.321
X47.061 Y33.45
X47.224 Y33.55
X47.403 Y33.616
X47.592 Y33.647
X47.783 Y33.642
X47.97 Y33.6
X48.145 Y33.524
X48.299 Y33.42
X53.522
X53.691 Y33.533
X53.874 Y33.608
X54.068 Y33.645
X54.265 Y33.644
X54.458 Y33.604
X54.64 Y33.527
X54.799 Y33.42
X60.051
X67.339 Y40.708
X67.379 Y40.884
X67.452 Y41.047
X67.551 Y41.187
X67.677 Y41.308
X67.825 Y41.402
X67.988 Y41.466
X68.16 Y41.497
X68.338 Y41.493
X68.506 Y41.457
X68.666 Y41.388
X68.811 Y41.29
X68.93 Y41.17
X69.087
X70.2 Y42.283
Y60.571
X68.212 Y62.56
X68.033 Y62.583
X67.867 Y62.638
X67.721 Y62.72
X42.3
X42.169 Y62.736
X42.059 Y62.772
X41.954 Y62.831
X41.831 Y62.94
X34.542 Y70.23
X33.66
Y71.93
X35.36
Y71.108
X42.549 Y63.92
X67.459 Z-0.174
X67.46 Y63.921 Z-0.165
X67.577 Y64.076
X67.72 Y64.199
X67.886 Y64.29
X68.067 Y64.344
X68.256 Y64.359
X68.443 Y64.335
X68.621 Y64.272
X68.782 Y64.173
X68.919 Y64.042
X69.026 Y63.886
X69.097 Y63.711
X69.131 Y63.525
X69.126 Y63.342
X71.225 Y61.243
X71.305 Y61.142
X71.358 Y61.038
X71.39 Y60.924
X71.4 Y60.751
Y42.035
X71.385 Y41.905
X71.348 Y41.794
X71.29 Y41.691
X71.18 Y41.566
X69.759 Y40.145
X69.656 Y40.064
X69.553 Y40.012
X69.439 Y39.98
X69.273 Y39.97
X68.876
X68.732 Y39.851
X68.573 Y39.767
X68.4 Y39.716
X68.22 Y39.7
X68.047 Y39.719
X60.724 Y32.396
X60.622 Y32.315
X60.518 Y32.262
X60.404 Y32.23
X60.237 Y32.22
X55.063
X54.963 Y32.054
X54.837 Y31.915
X54.688 Y31.802
X54.521 Y31.718
X54.34 Y31.667
X54.154 Y31.651
X53.967 Y31.669
X53.788 Y31.722
X53.621 Y31.808
X53.474 Y31.924
X53.35 Y32.064
X53.257 Y32.22
X48.563
X48.465 Y32.058
X48.344 Y31.921
X48.2 Y31.808
X48.038 Y31.722
X47.939 Y31.614
X47.82 Y31.535
X47.686 Y31.486
X47.519 Y31.47
X47.4
Y17.82
X47.379 Y17.666
X47.314 Y17.51
X47.291 Y17.467
X47.31 Y17.298
X47.295 Y17.135
X47.247 Y16.979
X47.168 Y16.835
X47.062 Y16.711
X46.933 Y16.611
X46.786 Y16.539
X46.628 Y16.498
X46.452 Y16.492
X46.353 Y16.508
X46.219 Y16.546
X46.075 Y16.619
X45.948 Y16.72
X37.828
X37.675 Y16.619
X37.509 Y16.556
X37.334 Y16.531
X37.157 Y16.545
X36.988 Y16.598
X36.833 Y16.688
X36.704 Y16.808
X36.604 Y16.954
X36.538 Y17.118
X36.511 Y17.294
X36.522 Y17.47
X36.572 Y17.64
X36.659 Y17.795
X36.777 Y17.927
X36.914 Y18.026
X37.069 Y18.093
X37.234 Y18.127
X37.403 Y18.125
X37.568 Y18.088
X37.721 Y18.017
X37.852 Y17.92
X46.017
X46.133 Y17.994
X46.2 Y18.028
Y31.699
X46.152 Y31.72
X37.05
X36.919 Y31.736
X36.809 Y31.772
X36.704 Y31.831
X36.581 Y31.94
X36.522 Y32
X36.322 Y31.992
X36.127 Y32.023
X35.948 Y32.089
X35.782 Y32.189
X35.638 Y32.32
X35.526 Y32.47
X30.735
X30.632 Y32.332
X30.514 Y32.218
X30.4 Y32.136
X30.39 Y31.966
X30.354 Y31.84
X30.29 Y31.726
X30.225 Y31.647
X30.224 Y31.646
X20.774 Y22.195
G0 Z3.035
X14.399 Y28.57
Z2.035
G1 Z-0.165 F150
X3.819 Y17.99 F1000
X3.81 Y17.816
X3.767 Y17.654
X3.691 Y17.504
X3.585 Y17.374
X3.455 Y17.268
X3.305 Y17.192
X3.142 Y17.149
X2.968 Y17.141
X2.866 Y17.157
X2.731 Y17.194
X2.579 Y17.272
X2.447 Y17.381
X2.342 Y17.516
X2.267 Y17.67
X2.227 Y17.836
X2.223 Y18.007
X2.256 Y18.175
X2.323 Y18.332
X2.422 Y18.471
X2.549 Y18.586
X2.697 Y18.671
X2.854 Y18.723
X16.2 Y32.069
Y47.023
X16.18 Y47.202
X16.197 Y47.377
X16.246 Y47.539
X16.329 Y47.691
X16.441 Y47.823
X16.577 Y47.93
X16.732 Y48.006
X16.902 Y48.05
X17.072 Y48.059
X17.246 Y48.032
X17.406 Y47.973
X17.552 Y47.881
X17.677 Y47.761
X17.775 Y47.619
X17.843 Y47.46
X17.876 Y47.29
X17.874 Y47.114
X17.839 Y46.948
X17.769 Y46.79
X17.669 Y46.65
X17.542 Y46.532
X17.4 Y46.445
Y31.82
X17.384 Y31.689
X17.348 Y31.579
X17.289 Y31.474
X17.225 Y31.397
X17.224 Y31.396
X14.399 Y28.57
G0 Z3.035
X28.99 Y37.033
Z2.035
G1 Z-0.165 F150
X28.919 Y37.211 F1000
X28.884 Y37.4
X28.885 Y37.592
X28.923 Y37.78
X28.996 Y37.957
X29.101 Y38.117
X29.234 Y38.254
X29.391 Y38.363
X29.567 Y38.44
X29.753 Y38.482
X29.944 Y38.488
X30.133 Y38.458
X30.312 Y38.392
X30.478 Y38.291
X30.614 Y38.17
X35.646
X35.785 Y38.293
X35.933 Y38.384
X36.095 Y38.448
X36.265 Y38.483
X36.44 Y38.488
X36.598 Y38.467
X44.126 Y45.994
X44.228 Y46.075
X44.332 Y46.128
X44.449 Y46.16
X44.619 Y46.17
X67.478
X67.6 Y46.32
X67.747 Y46.437
X67.915 Y46.522
X68.096 Y46.57
X68.283 Y46.579
X68.469 Y46.549
X68.644 Y46.481
X68.801 Y46.378
X68.934 Y46.245
X69.036 Y46.088
X69.103 Y45.913
X69.132 Y45.727
X69.122 Y45.54
X69.074 Y45.358
X68.989 Y45.191
X68.871 Y45.045
X68.726 Y44.927
X68.56 Y44.841
X68.38 Y44.792
X68.193 Y44.781
X68.008 Y44.809
X67.833 Y44.874
X67.678 Y44.97
X44.799
X37.379 Y37.55
X37.371 Y37.358
X37.33 Y37.177
X37.255 Y37.007
X37.151 Y36.853
X37.017 Y36.72
X36.867 Y36.616
X36.697 Y36.541
X36.516 Y36.499
X36.318 Y36.492
X36.194 Y36.51
X36.064 Y36.542
X35.9 Y36.613
X35.752 Y36.712
X35.624 Y36.836
X35.527 Y36.967
X35.526 Y36.97
X30.735
X30.615 Y36.812
X30.472 Y36.684
X30.307 Y36.586
X30.126 Y36.521
X29.937 Y36.492
X29.745 Y36.499
X29.558 Y36.543
X29.383 Y36.622
X29.227 Y36.733
X29.094 Y36.872
X28.99 Y37.033
G0 Z3.035
X19.919 Y49.348
Z2.035
G1 Z-0.165 F150
X19.8 Y49.276 F1000
X19.677 Y49.234
X19.519 Y49.22
X17.695
X17.579 Y49.101
X17.442 Y49.007
X17.296 Y48.943
X17.14 Y48.908
X16.974 Y48.902
X16.864 Y48.92
X16.735 Y48.953
X16.581 Y49.028
X16.44 Y49.138
X16.326 Y49.274
X16.242 Y49.43
X16.193 Y49.601
X16.18 Y49.779
X16.205 Y49.955
X16.265 Y50.122
X16.359 Y50.272
X16.483 Y50.401
X16.63 Y50.5
X16.795 Y50.567
X16.969 Y50.598
X17.147 Y50.592
X17.3 Y50.556
X17.438 Y50.495
X17.555 Y50.42
X18.95
Y63.82
X18.966 Y63.951
X19.002 Y64.061
X19.059 Y64.163
X19.17 Y64.289
X26.044 Y71.162
X26.082 Y71.341
X26.153 Y71.502
X26.255 Y71.644
X26.385 Y71.763
X26.537 Y71.852
X26.703 Y71.909
X26.878 Y71.929
X27.047 Y71.915
X29.127 Y73.995
X29.228 Y74.075
X29.332 Y74.128
X29.449 Y74.16
X29.619 Y74.17
X60.55
X60.681 Y74.154
X60.791 Y74.118
X60.896 Y74.059
X61.019 Y73.95
X68.081 Y66.887
X68.235 Y66.899
X68.281
X69.629 Y68.247
X69.731 Y68.326
X69.832 Y68.378
X69.946 Y68.41
X70.119 Y68.42
X94.3
X94.431 Y68.404
X94.541 Y68.368
X94.644 Y68.31
X94.769 Y68.2
X111.549 Y51.42
X118.818
X118.96 Y51.534
X119.116 Y51.613
X119.285 Y51.659
X119.46 Y51.669
X119.633 Y51.642
X119.797 Y51.581
X119.946 Y51.487
X120.072 Y51.365
X120.169 Y51.22
X120.236 Y51.058
X120.268 Y50.886
X120.263 Y50.71
X120.222 Y50.54
X120.148 Y50.381
X120.042 Y50.241
X119.914 Y50.128
X119.765 Y50.043
X119.602 Y49.99
X119.432 Y49.97
X119.261 Y49.985
X119.096 Y50.034
X118.946 Y50.115
X118.818 Y50.22
X111.299
X111.17 Y50.235
X111.055 Y50.274
X110.953 Y50.332
X110.827 Y50.444
X94.051 Y67.22
X70.299
X69.132 Y66.053
X69.122 Y65.86
X69.074 Y65.679
X68.989 Y65.512
X68.871 Y65.366
X68.726 Y65.247
X68.559 Y65.162
X68.379 Y65.112
X68.192 Y65.101
X68.006 Y65.129
X67.831 Y65.195
X67.673 Y65.296
X67.539 Y65.427
X67.436 Y65.584
X67.367 Y65.758
X67.335 Y65.936
X60.301 Y72.97
X29.799
X27.719 Y70.891
X27.682 Y70.778
X27.63 Y70.662
X27.54 Y70.532
X27.422 Y70.417
X27.284 Y70.327
X27.132 Y70.266
X26.97 Y70.234
X26.812
X20.15 Y63.571
Y49.82
X20.132 Y49.677
X20.087 Y49.554
X20.013 Y49.44
X19.919 Y49.348
G0 Z3.035
X28.652 Y51.852
Z2.035
G1 Z-0.165 F150
X28.62 Y51.966 F1000
X28.61 Y52.139
Y70.856
X28.582 Y71.036
X28.591 Y71.211
X28.635 Y71.381
X28.714 Y71.537
X28.823 Y71.675
X28.958 Y71.787
X29.114 Y71.869
X29.282 Y71.917
X29.457 Y71.93
X29.631 Y71.906
X29.796 Y71.847
X29.946 Y71.756
X30.074 Y71.635
X30.174 Y71.491
X30.243 Y71.33
X30.276 Y71.162
X30.275 Y70.99
X30.24 Y70.823
X30.172 Y70.666
X30.074 Y70.525
X29.95 Y70.408
X29.81 Y70.319
Y52.319
X33.269 Y48.86
X65.688
X67.124 Y50.297
X67.248 Y50.391
X67.38 Y50.448
X67.385 Y50.461
X67.341 Y50.645
X67.337 Y50.834
X67.372 Y51.02
X67.445 Y51.194
X67.554 Y51.349
X67.692 Y51.478
X67.854 Y51.576
X68.033 Y51.637
X68.22 Y51.659
X68.409 Y51.642
X68.589 Y51.586
X68.754 Y51.493
X68.896 Y51.368
X69.089 Y51.115
X69.147 Y50.993
X69.175 Y50.864
Y50.732
X69.145 Y50.603
X69.066 Y50.418
X68.973 Y50.247
X68.852 Y50.107
X68.705 Y49.994
X68.544 Y49.915
X68.072 Y49.444
X67.953 Y49.354
X67.822 Y49.297
X66.36 Y47.835
X66.257 Y47.754
X66.154 Y47.702
X66.04 Y47.67
X65.867 Y47.66
X33.02
X32.847 Y47.686
X32.707 Y47.749
X32.597 Y47.835
X32.596 Y47.836
X28.785 Y51.647
X28.704 Y51.749
X28.652 Y51.852
G0 Z3.035
X31.507 Y53.066
Z2.035
G1 Z-0.165 F150
X31.464 Y53.193 F1000
X31.45 Y53.358
Y70.407
X31.318 Y70.535
X31.219 Y70.682
X31.153 Y70.847
X31.122 Y71.022
X31.128 Y71.199
X31.171 Y71.371
X31.249 Y71.531
X31.359 Y71.671
X31.495 Y71.785
X31.651 Y71.868
X31.822 Y71.917
X31.999 Y71.93
X32.175 Y71.905
X32.342 Y71.845
X32.493 Y71.751
X32.613 Y71.637
X32.708 Y71.502
X32.776 Y71.351
X32.813 Y71.189
X32.818 Y71.024
X32.791 Y70.86
X32.733 Y70.705
X32.65 Y70.569
Y53.92
X67.58
X67.728 Y54.045
X67.893 Y54.133
X68.073 Y54.185
X68.259 Y54.199
X68.445 Y54.175
X68.621 Y54.112
X68.78 Y54.014
X68.916 Y53.886
X69.023 Y53.732
X69.095 Y53.559
X69.13 Y53.376
X69.126 Y53.189
X69.084 Y53.006
X69.005 Y52.837
X68.893 Y52.687
X68.771 Y52.579
X68.637 Y52.496
X68.492 Y52.438
X68.338 Y52.406
X68.169 Y52.402
X68.048 Y52.422
X67.936 Y52.451
X67.791 Y52.517
X67.654 Y52.612
X67.545 Y52.72
X32.05
X31.909 Y52.738
X31.784 Y52.783
X31.671 Y52.855
X31.578 Y52.951
X31.507 Y53.066
G0 Z3.035
X67.347 Y60.762
Z2.035
G1 Z-0.165 F150
X67.333 Y60.95 F1000
X67.359 Y61.136
X67.423 Y61.313
X67.523 Y61.473
X67.653 Y61.609
X67.809 Y61.714
X67.983 Y61.785
X68.169 Y61.818
X68.35 Y61.813
X68.351
X68.534 Y61.768
X68.7 Y61.69
X68.846 Y61.58
X68.967 Y61.442
X69.057 Y61.283
X69.113 Y61.109
X69.133 Y60.927
X69.116 Y60.745
X69.062 Y60.57
X68.974 Y60.409
X68.856 Y60.27
X68.712 Y60.157
X68.547 Y60.076
X68.37 Y60.03
X68.181 Y60.021
X68.073 Y60.037
X67.927 Y60.074
X67.757 Y60.156
X67.609 Y60.271
X67.488 Y60.415
X67.399 Y60.581
X67.347 Y60.762
G0 Z3.035
X67.966 Y59.238
Z2.035
G1 Z-0.165 F150
X67.983 Y59.245 F1000
X68.169 Y59.278
X68.357 Y59.272
X68.534 Y59.228
X68.7 Y59.15
X68.846 Y59.04
X68.967 Y58.902
X69.057 Y58.743
X69.113 Y58.569
X69.133 Y58.387
X69.116 Y58.205
X69.062 Y58.03
X68.974 Y57.869
X68.856 Y57.73
X68.712 Y57.617
X68.547 Y57.536
X68.37 Y57.49
X68.195 Y57.48
X68.194
X68.079 Y57.496
X67.923 Y57.535
X67.757 Y57.616
X67.609 Y57.731
X67.488 Y57.875
X67.399 Y58.041
X67.347 Y58.222
X67.333 Y58.41
X67.359 Y58.596
X67.423 Y58.773
X67.523 Y58.933
X67.653 Y59.069
X67.809 Y59.174
X67.966 Y59.238
G0 Z3.035
X68.169 Y56.738
Z2.035
G1 Z-0.165 F150
X68.345 Y56.733 F1000
X68.351
X68.534 Y56.688
X68.7 Y56.61
X68.846 Y56.5
X68.967 Y56.362
X69.057 Y56.203
X69.113 Y56.029
X69.133 Y55.847
X69.116 Y55.665
X69.062 Y55.49
X68.974 Y55.329
X68.856 Y55.19
X68.712 Y55.077
X68.547 Y54.996
X68.37 Y54.95
X68.177 Y54.941
X68.067 Y54.959
X67.927 Y54.993
X67.757 Y55.076
X67.609 Y55.191
X67.488 Y55.335
X67.399 Y55.501
X67.347 Y55.682
X67.333 Y55.87
X67.359 Y56.056
X67.423 Y56.233
X67.523 Y56.393
X67.653 Y56.529
X67.809 Y56.634
X67.983 Y56.705
X68.169 Y56.738
G0 Z3.035
Y49.118
Z2.035
G1 Z-0.165 F150
X68.35 Y49.113 F1000
X68.351
X68.534 Y49.068
X68.7 Y48.99
X68.846 Y48.88
X68.967 Y48.742
X69.057 Y48.583
X69.113 Y48.409
X69.133 Y48.227
X69.116 Y48.045
X69.062 Y47.87
X68.974 Y47.709
X68.856 Y47.57
X68.712 Y47.457
X68.547 Y47.376
X68.37 Y47.33
X68.178 Y47.321
X68.067 Y47.339
X67.927 Y47.374
X67.757 Y47.456
X67.609 Y47.571
X67.488 Y47.715
X67.399 Y47.881
X67.347 Y48.062
X67.333 Y48.25
X67.359 Y48.436
X67.423 Y48.613
X67.523 Y48.773
X67.653 Y48.909
X67.809 Y49.014
X67.983 Y49.085
X68.169 Y49.118
G0 Z3.035
X68.162 Y44.038
Z2.035
G1 Z-0.168 F150
X68.346 Y44.033 Z-0.167 F1000
X68.351 Z-0.168
X68.529 Y43.991 Z-0.167
X68.695 Y43.914
X68.842 Y43.804
X68.963 Y43.667
X69.055 Y43.509
X69.113 Y43.335
X69.134 Y43.153 Z-0.166
X69.118 Y42.971
X69.065 Y42.795
X68.979 Y42.634
X68.861 Y42.494 Z-0.167
X68.717 Y42.38
X68.553 Y42.298 Z-0.168
X68.377 Y42.251
X68.194 Y42.24 Z-0.169
X68.087 Y42.254 Z-0.165
X67.927 Y42.293
X67.757 Y42.376 Z-0.166
X67.609 Y42.491 Z-0.165
X67.488 Y42.635
X67.399 Y42.801
X67.347 Y42.982
X67.333 Y43.17
X67.359 Y43.356
X67.423 Y43.533
X67.518 Y43.688 Z-0.167
X67.648 Y43.825
X67.803 Y43.932
X67.977 Y44.004
X68.162 Y44.038 Z-0.168
Y44.034 Z-0.165
X68.316 Y44.036
X68.497 Y44
X68.667 Y43.928
X68.819 Y43.823
X68.946 Y43.69
X69.044 Y43.53
X69.106 Y43.36
X69.132 Y43.177
X69.121 Y42.993
X69.073 Y42.815
X68.989 Y42.651
X68.881 Y42.515
X68.75 Y42.403
X68.599 Y42.317
X68.434 Y42.263
X68.262 Y42.24
X68.09 Y42.251
X67.922 Y42.295
X67.766 Y42.371
X67.635 Y42.467
X67.631 Y42.47
X60.299
X55.146 Y37.317
X55.159 Y37.114
X55.132 Y36.918
X55.068 Y36.731
X54.968 Y36.56
X54.836 Y36.413
X54.678 Y36.294
X54.499 Y36.209
X54.308 Y36.161
X54.104 Y36.151
X53.987 Y36.168
X53.83 Y36.206
X53.65 Y36.29
X53.49 Y36.408
X53.357 Y36.555
X53.257 Y36.72
X48.563
X48.459 Y36.55
X48.329 Y36.408
X48.174 Y36.293
X48 Y36.21
X47.813 Y36.162
X47.621 Y36.151
X47.43 Y36.177
X47.247 Y36.239
X47.08 Y36.335
X46.935 Y36.462
X46.816 Y36.613
X46.729 Y36.785
X46.676 Y36.971
X46.66 Y37.163
X46.681 Y37.354
X46.738 Y37.539
X46.827 Y37.703
X46.947 Y37.851
X47.086 Y37.969
X47.249 Y38.061
X47.425 Y38.122
X47.613 Y38.148
X47.797 Y38.14
X47.978 Y38.098
X48.149 Y38.022
X48.299 Y37.92
X53.522
X53.668 Y38.02
X53.815 Y38.088
X53.968 Y38.131
X54.127 Y38.149
X54.275 Y38.144
X59.626 Y43.494
X59.728 Y43.575
X59.832 Y43.628
X59.949 Y43.66
X60.119 Y43.67
X67.506
X67.634 Y43.811
X67.783 Y43.919
X67.952 Y43.994
X68.132 Y44.034
X68.162
G0 Z3.035
X68.169 Y38.958
Z2.035
G1 Z-0.165 F150
X68.35 Y38.953 F1000
X68.351
X68.534 Y38.908
X68.7 Y38.83
X68.846 Y38.72
X68.967 Y38.582
X69.057 Y38.423
X69.113 Y38.249
X69.133 Y38.067
X69.116 Y37.885
X69.062 Y37.71
X68.974 Y37.549
X68.856 Y37.41
X68.712 Y37.297
X68.547 Y37.216
X68.37 Y37.17
X68.18 Y37.161
X68.073 Y37.177
X67.922 Y37.216
X67.757 Y37.296
X67.609 Y37.411
X67.488 Y37.555
X67.399 Y37.721
X67.347 Y37.902
X67.333 Y38.09
X67.359 Y38.276
X67.423 Y38.453
X67.523 Y38.613
X67.653 Y38.749
X67.809 Y38.854
X67.983 Y38.925
X68.169 Y38.958
G0 Z3.035
Y36.418
Z2.035
G1 Z-0.165 F150
X68.35 Y36.413 F1000
X68.351
X68.534 Y36.368
X68.7 Y36.29
X68.846 Y36.18
X68.967 Y36.042
X69.057 Y35.883
X69.113 Y35.709
X69.133 Y35.527
X69.116 Y35.345
X69.062 Y35.17
X68.974 Y35.009
X68.856 Y34.87
X68.712 Y34.757
X68.547 Y34.676
X68.37 Y34.63
X68.181 Y34.621
X68.073 Y34.637
X67.927 Y34.674
X67.757 Y34.756
X67.609 Y34.871
X67.488 Y35.015
X67.399 Y35.181
X67.347 Y35.362
X67.333 Y35.55
X67.359 Y35.736
X67.423 Y35.913
X67.523 Y36.073
X67.653 Y36.209
X67.809 Y36.314
X67.983 Y36.385
X68.169 Y36.418
G0 Z3.035
Y33.878
Z2.035
G1 Z-0.165 F150
X68.35 Y33.873 F1000
X68.351
X68.534 Y33.828
X68.7 Y33.75
X68.846 Y33.64
X68.967 Y33.502
X69.057 Y33.343
X69.113 Y33.169
X69.133 Y32.987
X69.116 Y32.805
X69.062 Y32.63
X68.974 Y32.469
X68.856 Y32.33
X68.712 Y32.217
X68.547 Y32.136
X68.37 Y32.09
X68.175 Y32.082
X68.067 Y32.099
X67.927 Y32.134
X67.757 Y32.216
X67.609 Y32.331
X67.488 Y32.475
X67.399 Y32.641
X67.347 Y32.822
X67.333 Y33.01
X67.359 Y33.196
X67.423 Y33.373
X67.523 Y33.533
X67.655 Y33.67
X67.809 Y33.774
X67.983 Y33.845
X68.169 Y33.878
G0 Z3.035
Y31.338
Z2.035
G1 Z-0.165 F150
X68.35 Y31.333 F1000
X68.351
X68.534 Y31.288
X68.7 Y31.21
X68.846 Y31.1
X68.967 Y30.962
X69.057 Y30.803
X69.113 Y30.629
X69.133 Y30.447
X69.116 Y30.265
X69.062 Y30.09
X68.974 Y29.929
X68.856 Y29.79
X68.712 Y29.677
X68.547 Y29.596
X68.37 Y29.55
X68.175 Y29.542
X68.067 Y29.559
X67.927 Y29.594
X67.757 Y29.676
X67.609 Y29.791
X67.488 Y29.935
X67.399 Y30.101
X67.347 Y30.282
X67.333 Y30.47
X67.359 Y30.656
X67.423 Y30.833
X67.523 Y30.993
X67.653 Y31.129
X67.809 Y31.234
X67.983 Y31.305
X68.169 Y31.338
G0 Z3.035
X69.444 Y30.063
Z2.035
G1 Z-0.165 F150
X82.95 Y43.569 F1000
Y63.32
X82.968 Y63.461
X83.013 Y63.586
X83.085 Y63.699
X83.181 Y63.792
X83.296 Y63.863
X83.423 Y63.906
X83.588 Y63.92
X92.859
X92.974 Y64.073
X93.113 Y64.194
X93.274 Y64.285
X93.45 Y64.341
X93.634 Y64.36
X93.818 Y64.341
X93.994 Y64.284
X94.155 Y64.193
X94.294 Y64.071
X94.405 Y63.924
X94.483 Y63.756
X94.526 Y63.577
X94.531 Y63.392
X94.498 Y63.21
X94.429 Y63.039
X94.335 Y62.897
X94.218 Y62.776
X94.079 Y62.678
X93.922 Y62.608
X93.756 Y62.569
X93.586 Y62.562
X93.423 Y62.585
X93.263 Y62.64
X93.121 Y62.72
X84.15
Y43.32
X84.134 Y43.189
X84.098 Y43.079
X84.041 Y42.977
X83.975 Y42.897
X83.974 Y42.896
X69.224 Y28.146
X69.122 Y28.065
X69.018 Y28.012
X68.901 Y27.98
X68.731 Y27.97
X57.4
Y16.319
X66.549 Y7.17
X123.95
Y49.071
X120.301 Y52.72
X120.27
Y52.51
X118.57
Y54.21
X120.27
Y53.92
X120.575 Y53.918
X120.686 Y53.903
X120.795 Y53.866
X120.897 Y53.808
X121.023 Y53.696
X124.974 Y49.744
X125.055 Y49.641
X125.108 Y49.538
X125.14 Y49.422
X125.15 Y49.264
Y6.57
X125.132 Y6.427
X125.088 Y6.304
X125.013 Y6.19
X124.916 Y6.096
X124.801 Y6.026
X124.678 Y5.984
X124.519 Y5.97
X66.3
X66.127 Y5.996
X65.987 Y6.059
X65.858 Y6.163
X56.375 Y15.646
X56.295 Y15.748
X56.242 Y15.852
X56.21 Y15.969
X56.2 Y16.139
Y28.57
X56.218 Y28.711
X56.263 Y28.836
X56.335 Y28.949
X56.431 Y29.042
X56.546 Y29.113
X56.673 Y29.156
X56.831 Y29.17
X68.551
X69.444 Y30.063
G0 Z3.035
X73.95
Z2.035
G1 Z-0.165 F150
Y30.82 F1000
X73.965 Y30.95
X74.002 Y31.061
X74.061 Y31.166
X74.17 Y31.289
X85.45 Y42.569
Y55.82
X85.468 Y55.961
X85.514 Y56.088
X85.588 Y56.201
X85.685 Y56.295
X85.8 Y56.364
X85.923 Y56.406
X86.088 Y56.42
X92.945
X93.084 Y56.552
X93.241 Y56.65
X93.416 Y56.713
X93.599 Y56.739
X93.784 Y56.727
X93.963 Y56.677
X94.127 Y56.592
X94.271 Y56.475
X94.388 Y56.331
X94.472 Y56.166
X94.521 Y55.987
X94.532 Y55.802
X94.506 Y55.618
X94.442 Y55.444
X94.344 Y55.287
X94.225 Y55.162
X94.085 Y55.061
X93.928 Y54.99
X93.76 Y54.949
X93.588 Y54.941
X93.417 Y54.966
X93.255 Y55.024
X93.105 Y55.111
X92.98 Y55.22
X86.65
Y42.32
X86.634 Y42.189
X86.598 Y42.079
X86.541 Y41.977
X86.43 Y41.851
X75.153 Y30.574
X75.15 Y30.572
Y12.65
X75.34
Y10.85
X73.54
Y12.65
X73.95
Y30.063
G0 Z3.035
X59.818 Y17.81
Z2.035
G1 Z-0.165 F150
X59.91 Y17.677 F1000
X59.974 Y17.528
X60.006 Y17.368
Y17.212
X67.549 Y9.67
X73.666
X73.781 Y9.823
X73.92 Y9.944
X74.081 Y10.035
X74.257 Y10.091
X74.441 Y10.11
X74.625 Y10.091
X74.801 Y10.034
X74.962 Y9.943
X75.1 Y9.821
X75.211 Y9.674
X75.29 Y9.506
X75.333 Y9.327
X75.338 Y9.142
X75.305 Y8.96
X75.236 Y8.789
X75.142 Y8.647
X75.024 Y8.525
X74.885 Y8.427
X74.73 Y8.358
X74.564 Y8.318
X74.382 Y8.312
X74.255 Y8.331
X74.148 Y8.36
X74.029 Y8.411
X73.926 Y8.47
X67.299
X67.169 Y8.486
X67.059 Y8.522
X66.954 Y8.581
X66.831 Y8.69
X59.005 Y16.516
X58.834 Y16.584
X58.687 Y16.685
X58.566 Y16.816
X58.477 Y16.971
X58.424 Y17.141
X58.41 Y17.319
X58.437 Y17.496
X58.502 Y17.662
X58.602 Y17.81
X58.732 Y17.932
X58.886 Y18.022
X59.056 Y18.075
X59.234 Y18.09
X59.41 Y18.065
X59.563 Y18.008
X59.7 Y17.922
X59.818 Y17.81
G0 Z3.035
X87.992 Y28.352
Z2.035
G1 Z-0.165 F150
X87.96 Y28.469 F1000
X87.95 Y28.639
Y53.07
X87.968 Y53.213
X88.013 Y53.336
X88.085 Y53.449
X88.181 Y53.542
X88.296 Y53.613
X88.423 Y53.656
X88.588 Y53.67
X92.813
X92.911 Y53.836
X93.036 Y53.973
X93.188 Y54.082
X93.358 Y54.157
X93.541 Y54.195
X93.727
X93.909 Y54.156
X94.08 Y54.081
X94.231 Y53.973
X94.357 Y53.835
X94.451 Y53.675
X94.511 Y53.498
X94.533 Y53.313
X94.517 Y53.128
X94.462 Y52.95
X94.378 Y52.794
X94.264 Y52.658
X94.126 Y52.547
X93.966 Y52.464
X93.799 Y52.415
X93.623 Y52.4
X93.447 Y52.419
X93.28 Y52.47
X89.15
Y28.819
X92.049 Y25.92
X121.45
Y41.321
X120.301 Y42.47
X119.855
X119.69 Y42.394
X119.518 Y42.356
X119.342 Y42.354
X119.169 Y42.388
X119.007 Y42.457
X118.863 Y42.558
X118.743 Y42.687
X118.652 Y42.837
X118.593 Y43.003
X118.57 Y43.178
X118.584 Y43.353
X118.633 Y43.522
X118.716 Y43.677
X118.83 Y43.812
X118.969 Y43.92
X119.116 Y43.994
X119.274 Y44.038
X119.439 Y44.05
X119.602 Y44.03
X119.758 Y43.979
X119.903 Y43.899
X120.029 Y43.793
X120.129 Y43.67
X120.563 Y43.669
X120.68 Y43.655
X120.795 Y43.616
X120.897 Y43.558
X121.023 Y43.446
X122.474 Y41.994
X122.555 Y41.891
X122.608 Y41.788
X122.64 Y41.672
X122.65 Y41.514
Y25.32
X122.632 Y25.179
X122.588 Y25.054
X122.513 Y24.94
X122.416 Y24.846
X122.301 Y24.776
X122.178 Y24.734
X122.019 Y24.72
X91.799
X91.627 Y24.746
X91.486 Y24.81
X91.377 Y24.895
X91.376 Y24.896
X88.125 Y28.147
X88.044 Y28.249
X87.992 Y28.352
G0 Z3.035
X90.492 Y29.352
Z2.035
G1 Z-0.165 F150
X90.46 Y29.469 F1000
X90.45 Y29.639
Y48.07
X90.468 Y48.213
X90.513 Y48.336
X90.585 Y48.449
X90.681 Y48.542
X90.796 Y48.613
X90.923 Y48.656
X91.081 Y48.67
X92.854
X92.967 Y48.825
X93.105 Y48.948
X93.266 Y49.041
X93.442 Y49.099
X93.627 Y49.12
X93.811 Y49.102
X93.988 Y49.047
X94.15 Y48.956
X94.292 Y48.833
X94.403 Y48.687
X94.482 Y48.519
X94.525 Y48.339
X94.531 Y48.153
X94.498 Y47.971
X94.429 Y47.799
X94.324 Y47.643
X94.188 Y47.512
X94.029 Y47.412
X93.852 Y47.347
X93.665 Y47.321
X93.478 Y47.334
X93.297 Y47.386
X93.134 Y47.47
X91.65
Y29.819
X93.049 Y28.42
X106.301
X118.57 Y40.688
X118.595 Y40.866
X118.654 Y41.029
X118.745 Y41.177
X118.864 Y41.303
X119.007 Y41.403
X119.165 Y41.471
X119.335 Y41.506
X119.509 Y41.505
X119.679 Y41.47
X119.837 Y41.401
X119.979 Y41.301
X120.097 Y41.174
X120.187 Y41.026
X120.246 Y40.863
X120.27 Y40.691
X120.258 Y40.516
X120.21 Y40.347
X120.13 Y40.192
X120.019 Y40.057
X119.882 Y39.947
X119.726 Y39.867
X119.557 Y39.821
X119.389 Y39.81
X106.974 Y27.396
X106.872 Y27.315
X106.767 Y27.262
X106.651 Y27.23
X106.481 Y27.22
X92.798
X92.627 Y27.246
X92.487 Y27.309
X92.377 Y27.395
X92.376 Y27.396
X90.625 Y29.147
X90.544 Y29.249
X90.492 Y29.352
G0 Z3.035
X92.804 Y30.091
Z2.035
G1 Z-0.165 F150
X92.75 Y30.269 F1000
X92.733 Y30.454
X92.755 Y30.638
X92.815 Y30.815
X92.91 Y30.975
X93.035 Y31.112
X93.186 Y31.22
X93.356 Y31.296
X93.538 Y31.334
X93.717 Y31.336
X108.626 Y46.244
X108.728 Y46.325
X108.833 Y46.378
X108.949 Y46.41
X109.119 Y46.42
X118.909
X119.067 Y46.513
X119.235 Y46.569
X119.411 Y46.59
X119.587 Y46.573
X119.756 Y46.52
X119.911 Y46.434
X120.044 Y46.317
X120.151 Y46.175
X120.224 Y46.014
X120.264 Y45.842
X120.267 Y45.665
X120.233 Y45.491
X120.163 Y45.328
X120.062 Y45.183
X119.933 Y45.062
X119.791 Y44.975
X119.635 Y44.917
X119.471 Y44.891
X119.304 Y44.898
X119.142 Y44.936
X118.991 Y45.006
X118.857 Y45.103
X118.747 Y45.22
X109.3
X109.299
X94.533 Y30.455
X94.516 Y30.266
X94.462 Y30.091
X94.374 Y29.93
X94.256 Y29.791
X94.112 Y29.678
X93.948 Y29.597
X93.77 Y29.55
X93.575 Y29.542
X93.467 Y29.558
X93.329 Y29.593
X93.161 Y29.673
X93.014 Y29.787
X92.893 Y29.928
X92.804 Y30.091
G0 Z3.035
X93.327 Y32.134
Z2.035
G1 Z-0.165 F150
X93.157 Y32.216 F1000
X93.009 Y32.331
X92.888 Y32.475
X92.799 Y32.641
X92.747 Y32.822
X92.733 Y33.01
X92.759 Y33.196
X92.823 Y33.373
X92.923 Y33.533
X93.053 Y33.669
X93.209 Y33.774
X93.383 Y33.845
X93.569 Y33.878
X93.757 Y33.872
X93.934 Y33.828
X94.1 Y33.75
X94.246 Y33.64
X94.367 Y33.502
X94.457 Y33.343
X94.513 Y33.169
X94.533 Y32.987
X94.516 Y32.805
X94.462 Y32.63
X94.374 Y32.469
X94.256 Y32.33
X94.112 Y32.217
X93.947 Y32.136
X93.77 Y32.09
X93.575 Y32.082
X93.519 Y32.087
X93.516
X93.327 Y32.134
G0 Z3.035
X93.546 Y34.624
Z2.035
G1 Z-0.165 F150
X93.516 Y34.627 F1000
X93.327 Y34.674
X93.157 Y34.756
X93.009 Y34.871
X92.888 Y35.015
X92.799 Y35.181
X92.747 Y35.362
X92.733 Y35.55
X92.759 Y35.736
X92.823 Y35.913
X92.923 Y36.073
X93.053 Y36.209
X93.209 Y36.314
X93.383 Y36.385
X93.569 Y36.418
X93.757 Y36.412
X93.934 Y36.368
X94.1 Y36.29
X94.246 Y36.18
X94.367 Y36.042
X94.457 Y35.883
X94.513 Y35.709
X94.533 Y35.527
X94.516 Y35.345
X94.462 Y35.17
X94.374 Y35.009
X94.256 Y34.87
X94.112 Y34.757
X93.947 Y34.676
X93.77 Y34.63
X93.581 Y34.621
X93.546 Y34.624
G0 Z3.035
X93.579 Y37.161
Z2.035
G1 Z-0.165 F150
X93.517 Y37.167 F1000
X93.516
X93.327 Y37.214
X93.157 Y37.296
X93.009 Y37.411
X92.888 Y37.555
X92.799 Y37.721
X92.747 Y37.902
X92.733 Y38.09
X92.759 Y38.276
X92.823 Y38.453
X92.923 Y38.613
X93.053 Y38.749
X93.209 Y38.854
X93.383 Y38.925
X93.569 Y38.958
X93.757 Y38.952
X93.934 Y38.908
X94.1 Y38.83
X94.246 Y38.72
X94.367 Y38.582
X94.457 Y38.423
X94.513 Y38.249
X94.533 Y38.067
X94.516 Y37.885
X94.462 Y37.71
X94.374 Y37.549
X94.256 Y37.41
X94.112 Y37.297
X93.947 Y37.216
X93.77 Y37.17
X93.579 Y37.161
G0 Z3.035
X93.581 Y39.701
Z2.035
G1 Z-0.165 F150
X93.473 Y39.717 F1000
X93.327 Y39.754
X93.157 Y39.836
X93.009 Y39.951
X92.888 Y40.095
X92.799 Y40.261
X92.747 Y40.442
X92.733 Y40.63
X92.759 Y40.816
X92.823 Y40.993
X92.923 Y41.153
X93.053 Y41.289
X93.209 Y41.394
X93.383 Y41.465
X93.569 Y41.498
X93.75 Y41.493
X93.751
X93.934 Y41.448
X94.1 Y41.37
X94.246 Y41.26
X94.367 Y41.122
X94.457 Y40.963
X94.513 Y40.789
X94.533 Y40.607
X94.516 Y40.425
X94.462 Y40.25
X94.374 Y40.089
X94.256 Y39.95
X94.112 Y39.837
X93.947 Y39.756
X93.77 Y39.71
X93.581 Y39.701
G0 Z3.035
Y42.241
Z2.035
G1 Z-0.165 F150
X93.467 Y42.258 F1000
X93.326 Y42.294
X93.166 Y42.37
X93.02 Y42.48
X92.9 Y42.618
X92.809 Y42.777
X92.753 Y42.951
X92.733 Y43.133
X92.75 Y43.315
X92.804 Y43.49
X92.891 Y43.65
X93.01 Y43.79
X93.154 Y43.902
X93.318 Y43.983
X93.495 Y44.03
X93.672 Y44.04
X98.376 Y48.744
X98.478 Y48.825
X98.582 Y48.878
X98.696 Y48.91
X98.863 Y48.92
X118.86
X119.011 Y49.024
X119.173 Y49.093
X119.346 Y49.126
X119.522 Y49.123
X119.694 Y49.084
X119.854 Y49.01
X119.996 Y48.905
X120.112 Y48.773
X120.199 Y48.619
X120.253 Y48.451
X120.27 Y48.276
X120.251 Y48.1
X120.196 Y47.933
X120.108 Y47.78
X119.99 Y47.649
X119.853 Y47.549
X119.7 Y47.477
X119.536 Y47.438
X119.367 Y47.432
X119.2 Y47.459
X119.043 Y47.519
X118.899 Y47.609
X118.78 Y47.72
X99.05
X99.049
X94.531 Y43.202
X94.523 Y43.007
X94.476 Y42.824
X94.391 Y42.655
X94.273 Y42.507
X94.127 Y42.388
X93.959 Y42.301
X93.776 Y42.251
X93.581 Y42.241
G0 Z3.035
Y44.781
Z2.035
G1 Z-0.165 F150
X93.473 Y44.797 F1000
X93.327 Y44.833
X93.157 Y44.916
X93.009 Y45.031
X92.888 Y45.175
X92.799 Y45.341
X92.747 Y45.522
X92.733 Y45.71
X92.759 Y45.896
X92.823 Y46.073
X92.923 Y46.233
X93.053 Y46.369
X93.209 Y46.474
X93.383 Y46.545
X93.569 Y46.578
X93.75 Y46.573
X93.751
X93.934 Y46.528
X94.1 Y46.45
X94.246 Y46.34
X94.367 Y46.202
X94.457 Y46.043
X94.513 Y45.869
X94.533 Y45.687
X94.516 Y45.505
X94.462 Y45.33
X94.374 Y45.169
X94.256 Y45.03
X94.112 Y44.917
X93.947 Y44.836
X93.77 Y44.79
X93.581 Y44.781
G0 Z3.035
Y49.861
Z2.035
G1 Z-0.165 F150
X93.473 Y49.877 F1000
X93.327 Y49.914
X93.157 Y49.996
X93.009 Y50.111
X92.888 Y50.255
X92.799 Y50.421
X92.747 Y50.602
X92.733 Y50.79
X92.759 Y50.976
X92.823 Y51.153
X92.923 Y51.313
X93.053 Y51.449
X93.209 Y51.554
X93.383 Y51.625
X93.569 Y51.658
X93.75 Y51.653
X93.751
X93.934 Y51.608
X94.1 Y51.53
X94.246 Y51.42
X94.367 Y51.282
X94.457 Y51.123
X94.513 Y50.949
X94.533 Y50.767
X94.516 Y50.585
X94.462 Y50.41
X94.374 Y50.249
X94.256 Y50.11
X94.112 Y49.997
X93.947 Y49.916
X93.77 Y49.87
X93.581 Y49.861
G0 Z3.035
Y57.481
Z2.035
G1 Z-0.165 F150
X93.473 Y57.497 F1000
X93.327 Y57.534
X93.157 Y57.616
X93.009 Y57.731
X92.888 Y57.875
X92.799 Y58.041
X92.747 Y58.222
X92.733 Y58.41
X92.759 Y58.596
X92.823 Y58.773
X92.923 Y58.933
X93.053 Y59.069
X93.209 Y59.174
X93.383 Y59.245
X93.569 Y59.278
X93.747 Y59.273
X93.751
X93.934 Y59.228
X94.1 Y59.15
X94.246 Y59.04
X94.367 Y58.902
X94.457 Y58.743
X94.513 Y58.569
X94.533 Y58.387
X94.516 Y58.205
X94.462 Y58.03
X94.374 Y57.869
X94.256 Y57.73
X94.112 Y57.617
X93.947 Y57.536
X93.77 Y57.49
X93.581 Y57.481
G0 Z3.035
Y60.021
Z2.035
G1 Z-0.165 F150
X93.473 Y60.037 F1000
X93.327 Y60.074
X93.157 Y60.156
X93.009 Y60.271
X92.888 Y60.415
X92.799 Y60.581
X92.747 Y60.762
X92.733 Y60.95
X92.759 Y61.136
X92.823 Y61.313
X92.923 Y61.473
X93.053 Y61.609
X93.209 Y61.714
X93.383 Y61.785
X93.569 Y61.818
X93.75 Y61.813
X93.751
X93.934 Y61.768
X94.1 Y61.69
X94.246 Y61.58
X94.367 Y61.442
X94.457 Y61.283
X94.513 Y61.109
X94.533 Y60.927
X94.516 Y60.745
X94.462 Y60.57
X94.374 Y60.409
X94.256 Y60.27
X94.112 Y60.157
X93.947 Y60.076
X93.77 Y60.03
X93.581 Y60.021
G0 Z3.035
X93.575 Y65.102
Z2.035
G1 Z-0.165 F150
X93.467 Y65.119 F1000
X93.327 Y65.154
X93.157 Y65.236
X93.009 Y65.351
X92.888 Y65.495
X92.799 Y65.661
X92.747 Y65.842
X92.733 Y66.03
X92.759 Y66.216
X92.823 Y66.393
X92.923 Y66.553
X93.053 Y66.689
X93.209 Y66.794
X93.383 Y66.865
X93.569 Y66.898
X93.747 Y66.893
X93.751
X93.934 Y66.848
X94.1 Y66.77
X94.246 Y66.66
X94.367 Y66.522
X94.457 Y66.363
X94.513 Y66.189
X94.533 Y66.007
X94.516 Y65.825
X94.462 Y65.65
X94.374 Y65.489
X94.256 Y65.35
X94.112 Y65.237
X93.947 Y65.156
X93.77 Y65.11
X93.575 Y65.102
G0 Z7.035

G28 G91 Z0
G90
G28 G91 X0 Y0
G90
M5
M30
