(1002)
(T2 D=0.5 CR=0 TAPER=118deg - ZMIN=-0.15 - perfurar)
G90 G94
G17
G21
G28 G91 Z0
G90

(Broca de pontear - Perfurao da broca de pontear)
T2
S6500 M3
G17 G90 G94
G54
G0 X93.633 Y38.06
Z15.035
G0 Z5.035
Z5
G1 Z-0.15 F150
G0 Z5.035
Y43.14
Z5
G1 Z-0.15 F150
G0 Z5.035
Y40.6
Z5
G1 Z-0.15 F150
G0 Z5.035
Y35.52
Z5
G1 Z-0.15 F150
G0 Z5.035
Y32.98
G1 Z-0.115 F150
G0 Z5.035
Y30.44
Z5
G1 Z-0.15 F150
G0 Z5.035
X119.42 Y40.66
Z5
G1 Z-0.15 F150
G0 Z5.035
Y43.2
Z5
G1 Z-0.15 F150
G0 Z5.035
Y45.74
Z5
G1 Z-0.15 F150
G0 Z5.035
Y48.28
Z5
G1 Z-0.15 F150
G0 Z5.035
Y50.82
Z5
G1 Z-0.15 F150
G0 Z5.035
Y53.36
Z5
G1 Z-0.15 F150
G0 Z5.035
X93.633 Y45.68
Z5
G1 Z-0.15 F150
G0 Z5.035
Y48.22
Z5
G1 Z-0.15 F150
G0 Z5.035
Y50.76
Z5
G1 Z-0.15 F150
G0 Z5.035
Y53.3
Z5
G1 Z-0.15 F150
G0 Z5.035
Y55.84
Z5
G1 Z-0.15 F150
G0 Z5.035
Y58.38
Z5
G1 Z-0.15 F150
G0 Z5.035
Y60.92
Z5
G1 Z-0.15 F150
G0 Z5.035
Y63.46
Z5
G1 Z-0.15 F150
G0 Z5.035
Y66
Z5
G1 Z-0.15 F150
G0 Z5.035
X68.233
Z5
G1 Z-0.15 F150
G0 Z5.035
Y63.46
Z5
G1 Z-0.15 F150
G0 Z5.035
Y60.92
Z5
G1 Z-0.15 F150
G0 Z5.035
Y58.38
Z5
G1 Z-0.15 F150
G0 Z5.035
Y55.84
Z5
G1 Z-0.15 F150
G0 Z5.035
Y53.3
Z5
G1 Z-0.15 F150
G0 Z5.035
Y50.76
Z5
G1 Z-0.15 F150
G0 Z5.035
Y48.22
Z5
G1 Z-0.15 F150
G0 Z5.035
Y45.68
Z5
G1 Z-0.15 F150
G0 Z5.035
Y43.14
Z5
G1 Z-0.15 F150
G0 Z5.035
Y40.6
Z5
G1 Z-0.15 F150
G0 Z5.035
Y38.06
Z5
G1 Z-0.15 F150
G0 Z5.035
Y35.52
Z5
G1 Z-0.15 F150
G0 Z5.035
Y32.98
Z5
G1 Z-0.15 F150
G0 Z5.035
Y30.44
Z5
G1 Z-0.15 F150
G0 Z5.035
X74.44 Y11.75
G1 Z-0.115 F150
G0 Z5.035
Y9.21
G1 Z-0.115 F150
G0 Z5.035
X59.21 Y17.29
Z5
G1 Z-0.15 F150
G0 Z5.035
X46.51
Z5
G1 Z-0.15 F150
G0 Z5.035
X37.31 Y17.33
Z5
G1 Z-0.15 F150
G0 Z5.035
X24.61
Z5
G1 Z-0.15 F150
G0 Z5.035
X15.72 Y17.94
Z5
G1 Z-0.15 F150
G0 Z5.035
X3.02
Z5
G1 Z-0.15 F150
G0 Z5.035
X17.03 Y47.21
Z5
G1 Z-0.15 F150
G0 Z5.035
Y49.75
Z5
G1 Z-0.15 F150
G0 Z5.035
Y52.29
Z5
G1 Z-0.15 F150
G0 Z5.035
X29.88 Y37.49
Z5
G1 Z-0.15 F150
G0 Z5.035
Y32.99
Z5
G1 Z-0.15 F150
G0 Z5.035
X36.38
Z5
G1 Z-0.15 F150
G0 Z5.035
Y37.49
Z5
G1 Z-0.15 F150
G0 Z5.035
X47.66 Y37.15
Z5
G1 Z-0.15 F150
G0 Z5.035
Y32.65
Z5
G1 Z-0.15 F150
G0 Z5.035
X54.16
Z5
G1 Z-0.15 F150
G0 Z5.035
Y37.15
Z5
G1 Z-0.15 F150
G0 Z5.035
X34.51 Y71.08
Z5
G1 Z-0.15 F150
G0 Z5.035
X31.97
Z5
G1 Z-0.15 F150
G0 Z5.035
X29.43
Z5
G1 Z-0.15 F150
G0 Z5.035
X26.89
Z5
G1 Z-0.15 F150
G0 Z5.035
Z15.035

G28 G91 Z0
G90
G28 G91 X0 Y0
G90
M5
M30
